!!!!SEGMENT: pl-wtm--r-1226--012_lodwigowski-edward-stefan--stane-sie-stane-siwym-kaczorem.krn
!!!cenid: 18xx:1928
!!!COM: Łodwigowski, Edward Stefan
!!!COM-rismid: pe30111147
!!!CDT: 1815/08/14-1895/11/12
!!!CNT: Polish
!!!OTL: Stanę się stanę siwym kaczorem
!!!PDT:
!!!AGN:
!!!SMS-siglum: PL-Wtm
!!!SMS-shelfmark: R 1226
!!!SMS-shelfwork: 012 W
!!!SMS-variant:
!!!SMS-altvar:
!!!NIFC-rismid: 1001083998
!!!URL-scan: http://repozytorium.nifc.pl/skany/pl-wtm-nut--r1226-1227
!!!ONB-nifc: UWAGA: No. 60
!!!OMD: No 60. Andante
!!!key:
**kern	**fing	**kern	**fing	**dynam
*part1	*	*part1	*	*part1
*staff2	*	*staff1	*	*
*Iforte	*	*Iforte	*	*
*I"Fortepian	*	*I"Fortepian	*	*
*clefF4	*	*clefG2	*	*
*k[b-]	*	*k[b-]	*	*
*F:	*	*F:	*	*
*M6/8	*	*M6/8	*	*
*>[A,A,B]	*	*>[A,A,B]	*	*>[A,A,B]
=1	=1	=1	=1	=1
*all\right	*	*all\right	*	*
*>A	*>A	*>A	*>A	*>A
!	!	!LO:TX:a:t=Stanę się stanę siwym Kaczorem. P.L.P	!	!
8AL 8F\	.	(8ff\L	5	>
8c\	1	8ee\	.	.
8C\J	5	8dd\J)	.	.
*	*^	*	*	*
8B-L 8E\	2	4	(4dd\	3	.
*	*v	*v	*	*	*
8c\	.	.	.	.
8C\J	.	8cc\)	.	]
=2	=2	=2	=2	=2
8AL 8F\	.	(8cc\L	.	.
8c\	.	8a\	.	.
8C\J	.	8cc\J)	.	.
8B-L 8E\	.	(4dd\	.	.
8c\	.	.	.	.
8C\J	.	8cc\)	.	.
=3	=3	=3	=3	=3
8AL 8F\	.	(8ff\L	.	.
8c\	.	8ee\	.	.
8C\J	.	8dd\J)	.	.
8B-L 8E\	.	(4dd\	5	.
8c\	.	.	.	.
8C\J	.	8cc\)	.	.
=4	=4	=4	=4	=4
8AL 8F\	.	(8a/L	.	.
8c\	.	8g/	.	.
8C\J	.	8b-/J)	.	.
8B-L 8E\	.	(4dd\	.	.
8c\	.	.	.	.
8C\J	.	8cc\)	1	.
!!LO:PB:g=original
=5!|:	=5!|:	=5!|:	=5!|:	=5!|:
*>B	*>B	*>B	*>B	*>B
*^	*	*	*	*
*	*	*^	*	*	*
8A/L	4.F\	3	5	(4ff\	2	.
*	*	*v	*v	*	*	*
8c/	.	.	.	.	.
8B-/J	.	.	8gg\	.	.
8A/L	4.F\	.	4aa\	.	.
8c/	.	.	.	.	.
8A/J	.	.	8ff\)	1	.
=6	=6	=6	=6	=6	=6
4.F/	8F\L	.	(8aa\L	.	.
.	8c 8A\	.	8ff\	.	.
.	8dJ 8B-\	.	8bb-\J	.	.
4.F/	8F\L	.	4.aa\)	.	.
.	8c 8A\	.	.	.	.
.	8cJ 8A\	.	.	.	.
=7	=7	=7	=7	=7	=7
8A/L	4.F\	.	(4ff\	.	.
8c/	.	.	.	.	.
8B-/J	.	.	8gg\	.	.
8A/L	4.F\	.	4aa\	.	.
8c/	.	.	.	.	.
8A/J	.	.	8ff\)	.	.
=8	=8	=8	=8	=8	=8
4.C/	8C\L	.	(8aa\L	4	.
.	8B- 8E\	.	8gg\	.	.
.	8B-J 8G\	.	8ee\J	.	.
*	*	*below	*	*	*
4.F/	8F\L	4	4.ff\)	.	.
.	8c 8A\	.	.	.	.
.	8cJ 8A\	.	.	.	.
*v	*v	*	*	*	*
=:|!	=:|!	=:|!	=:|!	=:|!
*-	*-	*-	*-	*-
!!!system-decoration: {s1,s2}
!!!AIN: 1 forte
!!!ENC: Marta Lawrence
!!!ENC: 2021-05-01
!!!ENC: Andrzej Gręziak
!!!END: 2021-04-17
